svgs/sharp-regular/starfighter.svg

<svg xmlns="http://www.w3.org/2000/svg" viewBox="0 0 640 512"><!--! Font Awesome Pro 6.4.2 by @fontawesome - https://fontawesome.com License - https://fontawesome.com/license (Commercial License) Copyright 2023 Fonticons, Inc. --><path d="M258.8 0H280h80 21.2l2.6 21 27.4 219H488h24v24 88h56V168H544V120h24V96 72h48V96v24h24v48H616V448v24H568V448v-2.7L512 464v16H488h-8v32H416V480H392 368 272 248 224v32H160V480h-8H128V464L72 445.3V448v24H24V448 168H0V120H24V96 72H72V96v24H96v48H72V352h56V264 240h24 76.8L256.2 21l2.6-21zM368 432V281.5L338.8 48H301.2L272 281.5V432h96zm48 0h48V288H416V432zM224 288H176V432h48V288zm96-64c17.7 0 32 14.3 32 32v64H288V256c0-17.7 14.3-32 32-32z"/></svg>

<svg xmlns="http://www.w3.org/2000/svg" viewBox="0 0 640 512"><!--! Font Awesome Pro 6.6.0 by @fontawesome - https://fontawesome.com License - https://fontawesome.com/license (Commercial License) Copyright 2024 Fonticons, Inc. --><path d="M258.8 0L280 0l80 0 21.2 0 2.6 21 27.4 219 76.8 0 24 0 0 24 0 88 56 0 0-184-24 0 0-48 24 0 0-24 0-24 48 0 0 24 0 24 24 0 0 48-24 0 0 280 0 24-48 0 0-24 0-2.7L512 464l0 16-24 0-8 0 0 32-64 0 0-32-24 0-24 0-96 0-24 0-24 0 0 32-64 0 0-32-8 0-24 0 0-16L72 445.3l0 2.7 0 24-48 0 0-24 0-280L0 168l0-48 24 0 0-24 0-24 48 0 0 24 0 24 24 0 0 48-24 0 0 184 56 0 0-88 0-24 24 0 76.8 0L256.2 21l2.6-21zM368 432l0-150.5L338.8 48l-37.6 0L272 281.5 272 432l96 0zm48 0l48 0 0-144-48 0 0 144zM224 288l-48 0 0 144 48 0 0-144zm96-64c17.7 0 32 14.3 32 32l0 64-64 0 0-64c0-17.7 14.3-32 32-32z"/></svg>
